X:1
T:Fortitude (Smith), 2.10.10.10.4
T:Fortitude (Smith), 2.10.10.10.4
T:David Stanley Smith, 1905
T:Public Domain Courtesy of the Cyber Hymnal™
C:David Stanley Smith, 1905
Z:Public Domain
Z:Courtesy of the Cyber Hymnal™
%%score ( 1 2 ) ( 3 4 )
L:1/8
Q:1/4=95
M:4/4
K:Eb
V:1 treble 
V:2 treble 
V:3 bass 
V:4 bass 
V:1
 [EG] | [EG]>[DF] [DF]E [FA][EG][DF]E | [Ec]2 (BA) [EG]3 [EG] | [EG]G[G=A][FA] [FB]2 (dc) | %4
 [FB]2 [F=A]2 [FB]3 [FB] | [Fd]>[Fd] [Fc][FB] [Ee][EB] z2 | [GB]2 [FA]2 [EG]3 G | c6 [B,D]2 | %8
 [B,E]6 z |] %9
V:2
 x | x3 E x2 E x | x2 D2 x4 | x G x3 F2 x | x8 | x8 | x7 G | (G2 FE D2) x2 | x7 |] %9
V:3
 [E,B,] | [E,B,]>[A,B,] [A,B,][G,B,] [D,B,][E,B,][B,,A,][C,G,] | [A,,A,]2 (F,B,) [E,B,]3 [E,B,] | %3
 [E,B,][E,B,][E,C][E,C] [D,B,]2 (=B,C) | [F,D]2 [F,C]2 [B,D]3 [B,D] | %5
 [A,B,]>[A,B,] [A,C][A,D] [G,B,][G,B,] z2 | [C,B,]2 [D,B,]2 [E,B,]3 [E,B,] | (B,2 A,G, F,G,) A,2 | %8
 [E,G,]6 z |] %9
V:4
 x | x8 | x2 B,,2 x4 | x6 E,2 | x8 | x8 | x8 | A,,4 B,,4 | x7 |] %9

